components/Common/Svg/svgs/money.svg

<svg width="40" height="40" viewBox="0 0 40 40" fill="none" xmlns="http://www.w3.org/2000/svg">
<path fill-rule="evenodd" clip-rule="evenodd" d="M18.7397 9.77872C18.7397 8.94864 19.3057 8.02629 20.5865 7.25782C21.8474 6.50129 23.6539 6.00095 25.7027 6.00095C27.7515 6.00095 29.558 6.50129 30.8189 7.25782C32.0997 8.02629 32.6657 8.94864 32.6657 9.77872C32.6657 10.6088 32.0997 11.5312 30.8189 12.2996C29.558 13.0562 27.7515 13.5565 25.7027 13.5565C23.6539 13.5565 21.8474 13.0562 20.5865 12.2996C19.3057 11.5312 18.7397 10.6088 18.7397 9.77872ZM25.7027 4.00095C23.3537 4.00095 21.1787 4.57015 19.5575 5.54283C17.9563 6.50357 16.7397 7.97012 16.7397 9.77872V9.77878V16.1491V16.1491V22.5194V22.5195V28.8899C16.7397 30.6987 17.9566 32.1652 19.5578 33.1259C21.179 34.0985 23.3541 34.6677 25.7027 34.6677C28.0514 34.6677 30.2264 34.0985 31.8476 33.1259C33.4489 32.1652 34.6657 30.6987 34.6657 28.8899V22.5195V22.5194V16.1491V16.1491V9.77878V9.77872C34.6657 7.97012 33.4491 6.50357 31.8479 5.54283C30.2267 4.57015 28.0517 4.00095 25.7027 4.00095ZM32.6657 26.1919C32.4085 26.3953 32.1342 26.5835 31.8476 26.7554C30.2264 27.7281 28.0514 28.2972 25.7027 28.2972C23.3541 28.2972 21.179 27.7281 19.5578 26.7554C19.2712 26.5835 18.9969 26.3953 18.7397 26.1919V28.8899C18.7397 29.72 19.3058 30.6424 20.5868 31.4108C21.8477 32.1674 23.6542 32.6677 25.7027 32.6677C27.7512 32.6677 29.5577 32.1674 30.8187 31.4108C32.0996 30.6424 32.6657 29.72 32.6657 28.8899V26.1919ZM18.7397 16.1491V16.1491V13.4513C18.9969 13.6546 19.271 13.8427 19.5575 14.0146C21.1787 14.9873 23.3537 15.5565 25.7027 15.5565C28.0517 15.5565 30.2267 14.9873 31.8479 14.0146C32.1344 13.8427 32.4086 13.6546 32.6657 13.4513V16.1491V16.1491C32.6657 16.9793 32.0996 17.9016 30.8187 18.6701C29.5577 19.4266 27.7512 19.9269 25.7027 19.9269C23.6542 19.9269 21.8477 19.4266 20.5868 18.6701C19.3058 17.9016 18.7397 16.9793 18.7397 16.1491ZM31.8476 20.3852C32.1342 20.2132 32.4085 20.0251 32.6657 19.8216V22.5194C32.6657 23.3496 32.0996 24.2719 30.8187 25.0404C29.5577 25.7969 27.7512 26.2972 25.7027 26.2972C23.6542 26.2972 21.8477 25.7969 20.5868 25.0404C19.3058 24.2719 18.7397 23.3496 18.7397 22.5194V19.8216C18.9969 20.0251 19.2712 20.2132 19.5578 20.3852C21.179 21.3578 23.3541 21.9269 25.7027 21.9269C28.0514 21.9269 30.2264 21.3578 31.8476 20.3852ZM9.18506 13.5564V12.9638C9.18506 12.4116 8.73734 11.9638 8.18506 11.9638C7.63277 11.9638 7.18506 12.4116 7.18506 12.9638V13.5626C6.36062 13.6122 5.57991 13.9617 4.99258 14.549C4.35704 15.1846 4 16.0465 4 16.9453C4 17.8441 4.35704 18.7061 4.99258 19.3416C5.62812 19.9772 6.4901 20.3342 7.38889 20.3342H8.98148C9.34984 20.3342 9.70311 20.4806 9.96358 20.741C10.224 21.0015 10.3704 21.3548 10.3704 21.7231C10.3704 22.0915 10.224 22.4447 9.96358 22.7052C9.70311 22.9657 9.34984 23.112 8.98148 23.112H8.19161C8.18942 23.112 8.18724 23.112 8.18506 23.112C8.18287 23.112 8.18069 23.112 8.17851 23.112H5C4.44772 23.112 4 23.5597 4 24.112C4 24.6643 4.44772 25.112 5 25.112H7.18506V25.7046C7.18506 26.2569 7.63277 26.7046 8.18506 26.7046C8.73734 26.7046 9.18506 26.2569 9.18506 25.7046V25.1059C10.0096 25.0563 10.7904 24.7068 11.3778 24.1194C12.0133 23.4839 12.3704 22.6219 12.3704 21.7231C12.3704 20.8243 12.0133 19.9624 11.3778 19.3268C10.7422 18.6913 9.88027 18.3342 8.98148 18.3342H7.38889C7.02053 18.3342 6.66726 18.1879 6.4068 17.9274C6.14633 17.667 6 17.3137 6 16.9453C6 16.577 6.14633 16.2237 6.4068 15.9632C6.66726 15.7028 7.02053 15.5564 7.38889 15.5564H11.3704C11.9227 15.5564 12.3704 15.1087 12.3704 14.5564C12.3704 14.0042 11.9227 13.5564 11.3704 13.5564H9.18506Z" fill="#161616"/>
</svg>

<svg width="40" height="40" viewBox="0 0 40 40" fill="none" xmlns="http://www.w3.org/2000/svg"><path fill-rule="evenodd" clip-rule="evenodd" d="M18.74 9.779c0-.83.566-1.753 1.847-2.521C21.847 6.5 23.654 6 25.703 6c2.049 0 3.855.5 5.116 1.257 1.28.768 1.847 1.69 1.847 2.52 0 .83-.566 1.753-1.847 2.522-1.261.756-3.067 1.256-5.116 1.256-2.05 0-3.856-.5-5.116-1.256-1.281-.769-1.847-1.691-1.847-2.521ZM25.703 4c-2.35 0-4.524.57-6.145 1.542-1.602.96-2.818 2.427-2.818 4.236v19.11c0 1.81 1.217 3.276 2.818 4.237 1.621.973 3.796 1.542 6.145 1.542 2.348 0 4.523-.57 6.145-1.542 1.6-.96 2.818-2.427 2.818-4.236V9.779c0-1.809-1.217-3.275-2.818-4.236C30.227 4.57 28.052 4 25.703 4Zm6.963 22.19a7.726 7.726 0 0 1-.818.564c-1.622.973-3.797 1.542-6.145 1.542-2.349 0-4.524-.569-6.145-1.542a7.726 7.726 0 0 1-.818-.563v2.698c0 .83.566 1.752 1.847 2.52 1.26.757 3.067 1.258 5.116 1.258 2.048 0 3.855-.5 5.116-1.257 1.28-.769 1.847-1.691 1.847-2.521v-2.698ZM18.74 16.15v-2.698c.257.204.531.392.818.564 1.62.972 3.796 1.541 6.145 1.541 2.349 0 4.524-.569 6.145-1.541.286-.172.56-.36.818-.564v2.698c0 .83-.566 1.753-1.847 2.521-1.261.757-3.068 1.257-5.116 1.257-2.049 0-3.855-.5-5.116-1.257-1.281-.768-1.847-1.69-1.847-2.52Zm13.108 4.236c.286-.172.56-.36.818-.563v2.697c0 .83-.566 1.753-1.847 2.521-1.261.757-3.068 1.257-5.116 1.257-2.049 0-3.855-.5-5.116-1.257-1.281-.768-1.847-1.69-1.847-2.52v-2.698c.257.203.531.391.818.563 1.621.973 3.796 1.542 6.145 1.542 2.348 0 4.523-.57 6.145-1.542ZM9.185 13.556v-.592a1 1 0 0 0-2 0v.599a3.389 3.389 0 0 0 .204 6.771H8.98a1.39 1.39 0 0 1 0 2.778H5a1 1 0 1 0 0 2h2.185v.593a1 1 0 1 0 2 0v-.6a3.389 3.389 0 0 0-.204-6.77H7.39a1.389 1.389 0 1 1 0-2.779h3.981a1 1 0 1 0 0-2H9.185Z" fill="#161616"/></svg>
